X:158
T: Die Mordeltern
N: Q0085
O: Mitteleuropa, Deutschland / Frankreich, Lothringen, Kr. Bolchen,
R: Ballade, Habgier, Mord, Reue, Selbstmord
M: 3/4
L: 1/8
K: A
AEA | A3=GA=c | B3
=G=cB | A3AEF | =G3z
G2 | AE=FEDF | E3z
B=c | d3B=cBA | =G2A

